X: 191
T: John Peel
C: J. W. Graves
O: North Country Hunting Song
B: "The Everyday Song Book", 1927
F: http://www.library.pitt.edu/happybirthday/pdf/The_Everyday_Song_Book.pdf
Z: 2016 John Chambers <jc:trillian.mit.edu>
M: 4/4
L: 1/8
K: Eb
%%continueall 1
% - - - - - - - - - - - - - - - - - - - - - - - - - - - - -
G- G | B2 B2 G2 G- G | B2 B2 G2 G- G | A2 A- A F2 F- F | A2 A- A F2 ||
w: 1.~D' ye ken John Peel with his coat so gay? D' ye ken John* Peel at the break of the day?
w: 2.~Yes, I ken John Peel and* Ru-by to! - - Ran-ter and Ring-wood,* Bell-man and True!
%
F- F | E2 E- E e2 e d | d2 c> c B2 A G | c2 A F E2 D D | F4 E2 ||
w: D' ye ken John* Peel when he's far, far a-way, With his hounds and his horn in the morn-ing.
w: From a find to a check, from a check to a view, From a view to a death in the morn-ing.
%
"^Chorus."\
G G | B2 B B G2 G2 | B2 B B G2 G G | A2 A A F2 F F | A2 A2 F2 z2 |
w: For the sound of his horn brought me from my bed, And the cry of his hounds which be oft-times led,
%
E2 E> E He2 e d | d2 c> c B2 A G | c2 A F E2 D D | F4 E2 |]
w: Peel's view hal-loo would a-wak-en the dead, Or the fox from his lair in the morn-ing.
% - - - - - - - - - - - - - - - - - - - - - - - - - - - - -
